X: 33623
T: Rallarsvingen
R: reel
M: 4/4
K: Amajor
AB|c3A BABd|c2cA B2=G2|c3A BABd|c2c^d e2A2|
c3A BABd|c2cA B2=G2|=c3A BA=GB|A6:|
|:de|f3a g2ge|f2fa g2ec|f3a g2ge|f2b2 a2ge|
f3a g2ge|f2fa g2e2|1 =c3A BA=GB|A6:|2 =f2fa =g2e2|=c3A BA=GB|A6||

